X:1
T:Title
%%score 1 { 2 | 3 }
L:1/8
Q:1/4=95
M:3/4
K:Ab
V:1 treble nm="Grand Piano, Soprano"
V:2 bass nm="Choir Pad, Mazatlán, 87.87 D"
V:3 bass 
V:1
 [CE][DF] [CA]3 E | [DF][FA] [DF]2 .[CE]2 | [EA][EB] [Ec]3 [EB] | [CA][CA] [EB]4 | %4
w: By~John~W.~T.~Givens~&~~Joseph~M.~Hunt,~1912 * * *||||
 [Ec][DB] [CA]3 E | [DF][FA] [DF]2 .[CE]2 | [EA][EB] [Ec]3 [EA] | [EB][EB] [EA]4 | %8
w: ||||
 [Ac][Ae] [Ae]3 [Ac] | [Ae][Ac] [GB]2 .A2 | [Ac][Ae] [Ae]3 [Ac] | [Ae][Ac] [GB]4 | %12
w: ||||
 [Ac][GB] [EA]3 E | [DF][FA] [DF]2 .[CE]2 | [EA][EB] [Ec]3 [EA] | [EB][EB] [EA]4- | [EA]4 z2 |] %17
w: |||||
V:2
 A,A, A,3 A, | A,A, A,2 .A,2 | A,G, A,3 G, | A,A, G,4 | A,G, A,3 A, | A,A, A,2 .A,2 | %6
 A,G, A,3[K:treble] C | DD C4 | A,C C3 E | CE D2 .C2 | A,C C3 E | CE E4 | ED C3[K:bass] A, | %13
 A,A, A,2 .A,2 | A,G, A,3[K:treble] C | DD C4- | C4 z2 |] %17
V:3
 A,,A,, A,,3 C, | D,D, A,,2 .A,,2 | C,E, z2 z E, | F,F, E,4 | E,E, A,,3 C, | D,D, A,,2 .A,,2 | %6
 C,E, z2 z A, | E,E, [A,,A,]4 | z A, A,3 A, | A,A, E,2 .A,2 | z A, A,3 A, | A,A, E,4 | %12
 E,E, A,3 C, | D,D, A,,2 .A,,2 | C,E, z2 z A, | E,E, [A,,A,]4- | [A,,A,]4 z2 |] %17

